X: 20853
T: ROBERTSON'S QUICK STEP
C: Copyright.--Charles Robertson.
%R: march, polka, reel
B: W. Hamilton "Universal Tune-Book" Vol. 2 Glasgow 1846 p.85 #3
S: http://s3-eu-west-1.amazonaws.com/itma.dl.printmaterial/book_pdfs/hamiltonvol2web.pdf
Z: 2016 John Chambers <jc:trillian.mit.edu>
M: 2/4
L: 1/16
K: C
% - - - - - - - - - - - - - - - - - - - - - - - - -
G2 |\
c2c2 cBcd | e2c2 c2cd | e2c2 e2ge | dcde d2G2 |\
c2e2c2e2 | dcde f2gf | e2ef efed | c2e2c2 |]
ef |\
g2g2 g2eg | f2d2 c2Bc | d2d2 d2ge | fgef d2G2 |\
c2e2c2e2 | dcde f2gf | e2ef efed | c2e2c2 |]
% - - - - - - - - - - - - - - - - - - - - - - - - -

%%sep 1 1 500
%%sep 1 1 500

